build/svg/cmd/sc_datefield.svg

<?xml version="1.0" encoding="UTF-8" standalone="no"?>
<svg
   xmlns:dc="http://purl.org/dc/elements/1.1/"
   xmlns:cc="http://creativecommons.org/ns#"
   xmlns:rdf="http://www.w3.org/1999/02/22-rdf-syntax-ns#"
   xmlns:svg="http://www.w3.org/2000/svg"
   xmlns="http://www.w3.org/2000/svg"
   xmlns:xlink="http://www.w3.org/1999/xlink"
   xmlns:sodipodi="http://sodipodi.sourceforge.net/DTD/sodipodi-0.dtd"
   xmlns:inkscape="http://www.inkscape.org/namespaces/inkscape"
   viewBox="0 0 16 16"
   version="1.1"
   id="svg4"
   sodipodi:docname="sc_datefield.svg"
   inkscape:version="0.92.5 (2060ec1f9f, 2020-04-08)"
   inkscape:export-filename="/home/jupiter007/Libreoffice yaru theme fullcolor/build/cmd/sc_datefield.png"
   inkscape:export-xdpi="95"
   inkscape:export-ydpi="95"><metadata
   id="metadata10">
  <rdf:RDF>
    <cc:Work
       rdf:about="">
      <dc:format>image/svg+xml</dc:format>
      <dc:type
         rdf:resource="http://purl.org/dc/dcmitype/StillImage" />
    </cc:Work>
  </rdf:RDF>
</metadata>
<defs
   id="defs8">
  <linearGradient
     inkscape:collect="always"
     id="linearGradient822">
    <stop
       style="stop-color:#5bdbc1;stop-opacity:1;"
       offset="0"
       id="stop818" />
    <stop
       style="stop-color:#2b898f;stop-opacity:1"
       offset="1"
       id="stop820" />
  </linearGradient>
  <linearGradient
     inkscape:collect="always"
     xlink:href="#linearGradient822"
     id="linearGradient824"
     x1="9"
     y1="14"
     x2="9"
     y2="2"
     gradientUnits="userSpaceOnUse" />
</defs>
<sodipodi:namedview
   pagecolor="#ffffff"
   bordercolor="#666666"
   borderopacity="1"
   objecttolerance="10"
   gridtolerance="10"
   guidetolerance="10"
   inkscape:pageopacity="0"
   inkscape:pageshadow="2"
   inkscape:window-width="1920"
   inkscape:window-height="1011"
   id="namedview6"
   showgrid="true"
   inkscape:zoom="32"
   inkscape:cx="9.0441693"
   inkscape:cy="8.9105877"
   inkscape:window-x="0"
   inkscape:window-y="32"
   inkscape:window-maximized="1"
   inkscape:current-layer="svg4">
  <inkscape:grid
     type="xygrid"
     id="grid837" />
</sodipodi:namedview>


/&gt;<path
   sodipodi:nodetypes="cccscsccccccccscscccccc"
   inkscape:connector-curvature="0"
   id="path4237-1"
   d="M 4.9941699,0.99943415 C 3.7359689,1.0145522 2.8152789,0.96919795 2.0625296,1.38419 1.6861642,1.5916861 1.3892974,1.9435979 1.2246385,2.38225 1.0599645,2.8209019 1.0000212,3.3418338 1.0000212,3.9994338 v 1.488266 6.5128662 c 0,0.6576 0.059906,1.17857 0.2246173,1.617185 0.1646741,0.438614 0.4615295,0.788522 0.8378911,0.996094 0.7527193,0.415106 1.6735413,0.371528 2.9316403,0.386721 h 0.002 6.0058611 0.0038 c 1.25819,-0.01512 2.17889,0.03024 2.93164,-0.384793 0.376365,-0.207496 0.673221,-0.55937 0.837891,-0.998022 C 14.939885,13.179061 14.999979,13 14.999979,12.000566 V 5.4662318 3.9994338 c 0,-0.6576 -0.05991,-1.17857 -0.224617,-1.6171839 C 14.610666,1.9436358 14.313811,1.593727 13.937449,1.3861554 13.184681,0.97101205 12.263848,1.0146279 11.00576,0.99943415 h -0.002 -6.0058611 z"
   style="font-style:normal;font-variant:normal;font-weight:normal;font-stretch:normal;font-size:15px;line-height:125%;font-family:Ubuntu;-inkscape-font-specification:Ubuntu;text-align:center;letter-spacing:0px;word-spacing:0px;writing-mode:lr-tb;text-anchor:middle;display:inline;opacity:0.6;fill:#000000;fill-opacity:1;stroke:none;stroke-width:0.99980205" />
<path
   inkscape:connector-curvature="0"
   id="path1993"
   d="m 5.9833979,2.0266341 c -1.55658,0.011339 -1.109992,-0.011339 -2.659942,0.038929 -0.461227,0.042709 -1.0161868,0.2063622 -1.1553376,0.7099467 -0.2189859,0.635338 -0.1083969,1.333795 -0.1458142,1.981908 -0.00794,2.297123 -0.023055,5.5969752 0.021543,7.8863482 0.039118,0.461934 0.2025449,1.012649 0.6987558,1.163641 0.632458,0.22526 1.284147,0.122835 1.935976,0.154205 1.424235,0.0076 2.850562,0.01134 4.276419,0.01134 1.7045301,3.4e-4 1.4083901,-0.0038 3.1071891,-0.0189 0.511911,-0.01134 1.183699,0.0189 1.584745,-0.405165 0.4211,-0.539793 0.287093,-1.268032 0.322734,-1.903786 0.01172,-2.4443341 0.02759,-5.9116571 -0.02192,-8.3573531 -0.04929,-0.402027 -0.170005,-0.86294 -0.57514,-1.0444713 C 12.704435,1.9492294 11.946401,2.0754657 11.246682,2.0376705 9.4922779,2.0263319 7.7378089,2.0263319 5.9833719,2.0263319 Z"
   style="opacity:1;vector-effect:none;fill:url(#linearGradient824);fill-opacity:1;stroke:none;stroke-width:1;stroke-linecap:round;stroke-linejoin:bevel;stroke-miterlimit:4;stroke-dasharray:none;stroke-dashoffset:0;stroke-opacity:1"
   sodipodi:nodetypes="cccccccscccccccc" />
<rect
   style="opacity:1;fill:#ffffff;fill-opacity:1;stroke:none;stroke-width:2;stroke-linecap:round;stroke-linejoin:round;stroke-miterlimit:4;stroke-dasharray:none;stroke-opacity:1"
   id="rect843"
   width="1"
   height="4"
   x="13"
   y="6" />
<rect
   y="6"
   x="2"
   height="4"
   width="1"
   id="rect845"
   style="opacity:1;fill:#ffffff;fill-opacity:1;stroke:none;stroke-width:2;stroke-linecap:round;stroke-linejoin:round;stroke-miterlimit:4;stroke-dasharray:none;stroke-opacity:1" />
<path
   style="opacity:1;fill:#ffffff;fill-opacity:1;stroke:none;stroke-width:8.77999973;stroke-linejoin:round;stroke-miterlimit:4;stroke-dasharray:none;stroke-opacity:1"
   d="M 6.5,5 H 6 L 5.646484,5.3535156 4.232422,6.767578 c -0.195869,0.195869 -0.195869,0.511163 0,0.707031 0.195868,0.195869 0.511162,0.195869 0.707031,0 L 6,6.414063 V 10.5 C 6,10.777 6.223,11 6.5,11 6.777,11 7,10.777 7,10.5 v -5 C 7,5.223 6.777,5 6.5,5 Z"
   id="rect832"
   inkscape:connector-curvature="0"
   sodipodi:nodetypes="sccssscsssss" />
<path
   style="opacity:1;fill:#ffffff;fill-opacity:1;stroke:none;stroke-width:8.77999973;stroke-linejoin:round;stroke-miterlimit:4;stroke-dasharray:none;stroke-opacity:1"
   d="M 9,5 C 8.2522,5 8,5.25 8,6 v 1 c 0,0.7539062 0.253907,1 1,1 h 1 c 1,0 1,0 1,1 0,1 0,1 -1,1 H 9 C 8.2472211,10 8,10 8,10.5 8,11 8.25,11 9,11 12,11 12,11 12,9 12,7 12,7 9,7 V 6 h 2 C 11.752027,6 12,6 12,5.5 12,5 11.748439,5 11,5 Z"
   id="rect837"
   inkscape:connector-curvature="0"
   sodipodi:nodetypes="ccccccccsccccczcc" />
</svg>

<svg xmlns="http://www.w3.org/2000/svg" xmlns:xlink="http://www.w3.org/1999/xlink" viewBox="0 0 16 16"><defs><linearGradient id="a"><stop offset="0" stop-color="#5bdbc1"/><stop offset="1" stop-color="#2b898f"/></linearGradient><linearGradient xlink:href="#a" id="b" x1="9" y1="14" x2="9" y2="2" gradientUnits="userSpaceOnUse"/></defs>/&gt;<path d="M4.994 1c-1.258.015-2.179-.03-2.931.384-.377.208-.674.56-.838.998C1.06 2.821 1 3.342 1 4v8.002c0 .657.06 1.178.225 1.617.164.438.461.788.838.996.752.415 1.673.371 2.931.387h6.012c1.258-.016 2.179.03 2.931-.385.377-.208.674-.56.838-.998C14.94 13.179 15 13 15 12V3.999c0-.657-.06-1.178-.225-1.617a1.875 1.875 0 00-.838-.996c-.752-.415-1.673-.371-2.931-.387H4.998z" style="line-height:125%;-inkscape-font-specification:Ubuntu;text-align:center" font-weight="400" font-size="15" font-family="Ubuntu" letter-spacing="0" word-spacing="0" text-anchor="middle" opacity=".6"/><path d="M5.983 2.027c-1.556.011-1.11-.012-2.66.039-.46.042-1.016.206-1.155.71-.219.635-.108 1.333-.146 1.981-.008 2.298-.023 5.597.022 7.887.039.462.202 1.012.699 1.163.632.226 1.284.123 1.936.155 1.424.007 2.85.011 4.276.011 1.705 0 1.408-.004 3.107-.019.512-.011 1.184.019 1.585-.405.421-.54.287-1.268.323-1.904.011-2.444.027-5.912-.022-8.357-.05-.402-.17-.863-.575-1.045-.669-.294-1.427-.168-2.126-.205-1.755-.012-3.51-.012-5.264-.012z" fill="url(#b)"/><path fill="#fff" d="M13 6h1v4h-1zM2 6h1v4H2zM6.5 5H6l-.354.354-1.414 1.414a.499.499 0 10.707.707L6 6.415V10.5a.499.499 0 101 0v-5c0-.277-.223-.5-.5-.5zM9 5c-.748 0-1 .25-1 1v1c0 .754.254 1 1 1h1c1 0 1 0 1 1s0 1-1 1H9c-.753 0-1 0-1 .5s.25.5 1 .5c3 0 3 0 3-2s0-2-3-2V6h2c.752 0 1 0 1-.5s-.252-.5-1-.5z"/></svg>
